{ "compressionlevel":-1,
 "height":18,
 "infinite":false,
 "layers":[
        {
         "data":[1850, 1851, 1850, 1851, 1850, 1851, 1850, 1851, 1850, 1851, 1850, 1851, 2006, 884, 885, 884, 885, 884, 916, 917, 916, 917, 2002, 1850, 1851, 1850, 1851, 1850, 1851, 1850, 1851, 1850, 1851, 1850, 1851, 1850,
            1882, 1883, 1882, 1883, 1882, 1883, 1882, 1883, 1882, 1883, 1882, 1883, 2006, 916, 917, 916, 917, 916, 884, 885, 884, 885, 2002, 1882, 1883, 1882, 1883, 1882, 1883, 1882, 1883, 1882, 1883, 1882, 1883, 1882,
            1850, 1851, 1850, 1851, 1850, 1851, 1850, 1851, 1850, 1851, 1850, 1851, 2006, 884, 885, 884, 885, 884, 916, 917, 916, 917, 2002, 1850, 1851, 1850, 1851, 1850, 1851, 1850, 1851, 1850, 1851, 1850, 1851, 1850,
            1882, 1883, 1882, 1883, 1882, 1883, 1882, 1883, 1882, 1883, 1882, 1883, 2006, 916, 917, 916, 917, 916, 2005, 2070, 2070, 3221227477, 2002, 1882, 1883, 1882, 1883, 1882, 1883, 1882, 1883, 1882, 1883, 1882, 1883, 1882,
            1850, 1851, 1850, 1851, 1850, 1851, 1850, 1851, 1850, 1851, 1850, 1851, 2006, 884, 885, 884, 885, 884, 885, 885, 884, 885, 2002, 1850, 1851, 1850, 1851, 1850, 1851, 1850, 1851, 1850, 1851, 1850, 1851, 1851,
            1882, 1883, 1882, 1883, 1882, 1883, 1882, 1883, 1882, 1883, 1882, 1883, 2006, 916, 917, 916, 917, 916, 917, 917, 916, 917, 2002, 1882, 1883, 1882, 1883, 1882, 1883, 1882, 1883, 1882, 1883, 1882, 1883, 1883,
            2004, 2004, 2004, 2004, 2004, 2004, 2004, 2004, 2004, 2004, 2004, 2004, 2069, 1378, 1379, 1378, 1379, 1378, 1379, 1378, 1378, 1379, 2068, 2004, 2004, 2004, 2004, 2004, 2004, 2004, 2004, 2004, 2004, 2004, 2004, 2004,
            884, 885, 884, 885, 884, 885, 884, 885, 884, 885, 884, 885, 884, 885, 884, 885, 884, 885, 884, 885, 884, 885, 884, 885, 884, 885, 884, 885, 884, 885, 884, 885, 884, 885, 884, 885,
            916, 917, 916, 917, 916, 917, 916, 917, 916, 917, 916, 917, 916, 917, 916, 917, 916, 917, 916, 917, 916, 917, 916, 917, 916, 917, 916, 917, 916, 917, 916, 917, 916, 917, 916, 917,
            916, 917, 2225, 2226, 2227, 885, 884, 2225, 2226, 2227, 884, 885, 2225, 2226, 2227, 885, 884, 2225, 2226, 2227, 884, 885, 2225, 2226, 2227, 885, 884, 2225, 2226, 2227, 884, 885, 2225, 2226, 2227, 885,
            884, 885, 2257, 2258, 2259, 917, 916, 2257, 2258, 2259, 916, 917, 2257, 2258, 2259, 917, 916, 2257, 2258, 2259, 916, 917, 2257, 2258, 2259, 917, 916, 2257, 2258, 2259, 916, 917, 2257, 2258, 2259, 917,
            916, 917, 2289, 2290, 2291, 916, 917, 2289, 2290, 2291, 917, 916, 2289, 2290, 2291, 2005, 2070, 2070, 2070, 3221227477, 916, 917, 2289, 2290, 2291, 917, 916, 2289, 2290, 2291, 916, 917, 2289, 2290, 2291, 917,
            884, 885, 2321, 2322, 2323, 885, 884, 2321, 2322, 2323, 884, 885, 2321, 2322, 2323, 885, 884, 2321, 2322, 2323, 884, 885, 2321, 2322, 2323, 885, 884, 2321, 2322, 2323, 884, 885, 2321, 2322, 2323, 885,
            916, 917, 2353, 2354, 2355, 917, 916, 2353, 2354, 2355, 916, 917, 2353, 2354, 2355, 917, 916, 2353, 2354, 2355, 916, 917, 2353, 2354, 2355, 917, 916, 2353, 2354, 2355, 916, 917, 2353, 2354, 2355, 917,
            884, 885, 2385, 2386, 2387, 885, 884, 2385, 2386, 2387, 884, 885, 2385, 2386, 2387, 885, 884, 2385, 2386, 2387, 884, 885, 2385, 2386, 2387, 885, 884, 2385, 2386, 2387, 884, 885, 2385, 2386, 2387, 885,
            916, 917, 916, 917, 916, 917, 916, 917, 916, 917, 916, 917, 916, 917, 916, 917, 916, 917, 916, 917, 916, 917, 916, 917, 916, 917, 916, 917, 916, 917, 916, 917, 916, 917, 916, 917,
            2003, 2003, 2003, 2003, 2003, 2003, 2003, 2003, 2003, 2003, 2003, 2003, 2067, 1378, 1379, 1378, 1379, 1378, 1378, 1379, 1378, 1379, 2066, 2003, 2003, 2003, 2003, 2003, 2003, 2003, 2003, 2003, 2003, 2003, 2003, 2003,
            1850, 1851, 1851, 1851, 1850, 1851, 1850, 1851, 1850, 1851, 1850, 1851, 2006, 884, 885, 884, 885, 884, 885, 884, 884, 885, 2002, 1850, 1851, 1850, 1851, 1850, 1851, 1850, 1851, 1850, 1851, 1850, 1851, 1850],
         "height":18,
         "id":1,
         "name":"Tile Layer 1",
         "opacity":1,
         "type":"tilelayer",
         "visible":true,
         "width":36,
         "x":0,
         "y":0
        }],
 "nextlayerid":2,
 "nextobjectid":1,
 "orientation":"orthogonal",
 "renderorder":"right-down",
 "tiledversion":"1.12.1",
 "tileheight":8,
 "tilesets":[
        {
         "firstgid":1,
         "source":"testbg_zonecdhw open.tsx"
        }, 
        {
         "firstgid":649,
         "source":"..\/tilesets\/OneMTileset (1).tsx"
        }, 
        {
         "firstgid":1673,
         "source":"..\/tilesets\/4TileSet1 (4).tsx"
        }],
 "tilewidth":8,
 "type":"map",
 "version":"1.10",
 "width":36
}