{ "compressionlevel":-1,
 "height":18,
 "infinite":false,
 "layers":[
        {
         "data":[826, 826, 827, 826, 827, 827, 826, 827, 826, 827, 826, 827, 982, 1908, 1909, 1908, 1909, 1908, 1909, 1908, 1909, 1940, 978, 826, 827, 826, 827, 826, 827, 826, 827, 826, 827, 826, 827, 826,
            858, 858, 859, 858, 859, 859, 858, 859, 858, 859, 858, 859, 982, 1940, 1941, 1940, 1941, 1940, 1941, 1940, 1908, 1909, 978, 858, 859, 858, 859, 858, 859, 858, 859, 858, 859, 858, 859, 858,
            826, 826, 826, 827, 826, 827, 826, 827, 826, 827, 826, 827, 982, 1908, 1908, 1909, 1908, 1909, 1940, 1941, 1940, 1941, 978, 826, 827, 826, 827, 826, 827, 826, 827, 826, 827, 826, 827, 826,
            858, 858, 858, 859, 858, 859, 858, 859, 858, 859, 858, 859, 982, 1940, 1940, 1941, 1940, 1941, 981, 1046, 1046, 3221226453, 978, 858, 859, 858, 859, 858, 859, 858, 859, 858, 859, 858, 859, 858,
            826, 826, 827, 826, 827, 826, 827, 826, 827, 826, 826, 827, 982, 1908, 1909, 1908, 1908, 1909, 1908, 1909, 1908, 1909, 978, 826, 827, 826, 827, 826, 827, 826, 827, 826, 827, 826, 827, 826,
            858, 858, 859, 858, 859, 858, 859, 858, 859, 858, 858, 859, 982, 1940, 1941, 1940, 1940, 1941, 1940, 1941, 1940, 1941, 978, 858, 859, 858, 859, 858, 859, 858, 859, 858, 859, 858, 859, 858,
            980, 980, 980, 980, 980, 980, 980, 980, 980, 980, 980, 980, 1045, 2402, 2403, 1940, 1941, 1940, 1940, 1941, 2402, 2403, 1044, 980, 980, 980, 980, 980, 980, 980, 980, 980, 980, 980, 980, 980,
            1908, 1909, 1908, 1909, 1908, 1909, 1908, 1909, 1908, 1909, 1908, 1909, 1908, 1909, 1908, 1909, 1908, 1909, 1908, 1909, 1908, 1909, 1908, 1909, 1908, 1909, 1908, 1909, 1908, 1909, 1908, 1909, 1908, 1909, 1908, 1909,
            1940, 1941, 1940, 1941, 1940, 1941, 1940, 1941, 1940, 1941, 1940, 1941, 1940, 1941, 1940, 1941, 1940, 1941, 1940, 1941, 1940, 1941, 1940, 1941, 1940, 1941, 1940, 1941, 1940, 1941, 1940, 1941, 1940, 1941, 1940, 1941,
            1940, 1941, 1201, 1202, 1203, 1909, 1908, 1201, 1202, 1203, 1908, 1909, 1201, 1202, 1203, 1909, 1908, 1201, 1202, 1203, 1908, 1909, 1201, 1202, 1203, 1909, 1908, 1201, 1202, 1203, 1908, 1909, 1201, 1202, 1203, 1909,
            1908, 1909, 1233, 1234, 1235, 1941, 1940, 1233, 1234, 1235, 1940, 1941, 1233, 1234, 1235, 1941, 1940, 1233, 1234, 1235, 1940, 1941, 1233, 1234, 1235, 1941, 1940, 1233, 1234, 1235, 1940, 1941, 1233, 1234, 1235, 1941,
            1940, 1941, 1265, 1266, 1267, 1941, 1940, 1265, 1266, 1267, 1941, 1940, 1265, 1266, 1267, 981, 1046, 1046, 1046, 3221226453, 1940, 1941, 1265, 1266, 1267, 1941, 1940, 1265, 1266, 1267, 1940, 1941, 1265, 1266, 1267, 1941,
            1908, 1909, 1297, 1298, 1299, 1909, 1908, 1297, 1298, 1299, 1908, 1909, 1297, 1298, 1299, 1909, 1908, 1297, 1298, 1299, 1908, 1909, 1297, 1298, 1299, 1909, 1908, 1297, 1298, 1299, 1908, 1909, 1297, 1298, 1299, 1909,
            1940, 1941, 1329, 1330, 1331, 1941, 1940, 1329, 1330, 1331, 1940, 1941, 1329, 1330, 1331, 1941, 1940, 1329, 1330, 1331, 1940, 1941, 1329, 1330, 1331, 1941, 1940, 1329, 1330, 1331, 1940, 1941, 1329, 1330, 1331, 1941,
            1908, 1909, 1361, 1362, 1363, 1909, 1908, 1361, 1362, 1363, 1908, 1909, 1361, 1362, 1363, 1909, 1908, 1361, 1362, 1363, 1908, 1909, 1361, 1362, 1363, 1909, 1908, 1361, 1362, 1363, 1908, 1909, 1361, 1362, 1363, 1909,
            1940, 1941, 1940, 1941, 1940, 1941, 1940, 1941, 1940, 1941, 1940, 1941, 1940, 1941, 1940, 1941, 1940, 1941, 1940, 1941, 1940, 1941, 1940, 1941, 1940, 1941, 1940, 1941, 1940, 1941, 1940, 1941, 1940, 1941, 1940, 1941,
            979, 979, 979, 979, 979, 979, 979, 979, 979, 979, 979, 979, 1043, 2402, 1908, 1909, 1908, 1909, 1908, 1909, 1940, 2402, 1042, 979, 979, 979, 979, 979, 979, 979, 979, 979, 979, 979, 979, 979,
            826, 827, 826, 827, 826, 827, 826, 827, 826, 827, 826, 827, 982, 1940, 1940, 1941, 1940, 1941, 1940, 1941, 1940, 1941, 978, 826, 827, 826, 827, 826, 827, 826, 827, 826, 827, 826, 826, 827],
         "height":18,
         "id":1,
         "name":"Tile Layer 1",
         "opacity":1,
         "type":"tilelayer",
         "visible":true,
         "width":36,
         "x":0,
         "y":0
        }],
 "nextlayerid":2,
 "nextobjectid":1,
 "orientation":"orthogonal",
 "renderorder":"right-down",
 "tiledversion":"1.12.1",
 "tileheight":8,
 "tilesets":[
        {
         "firstgid":1,
         "source":"testbg_zonecdhw open.tsx"
        }, 
        {
         "firstgid":649,
         "source":"..\/tilesets\/4TileSet1 (4).tsx"
        }, 
        {
         "firstgid":1673,
         "source":"..\/tilesets\/OneMTileset (1).tsx"
        }],
 "tilewidth":8,
 "type":"map",
 "version":"1.10",
 "width":36
}